!!! OTL: Berkowitz194
!!! Chapter: 1
!!! Section: II
!!! Page: 46
!!! Mode: 
!!! Encoder: DJB
**kern
*staff1
*I"Piano
=1-
*clefG2
*k[f#c#g#d#]
*E:
*M9/8
8e/L
8g#/
8b/J
8ee\L
8dd#\
8cc#\J
4.b\
=2
8B/L
8d#/
8f#/J
8a/L
8g#/
8f#/J
4.g#/
=3
8a\L
8b\
8cc#\J
8b/L
8g#/
8e/J
8e/L
8d#/
8e/J
=4
4.f#/
8g#/L
8f#/
8e/J
4.f#/
=5
8ee\L
8g#\
8b\J
8ee\L
8dd#\
8cc#\J
4b\
8g#/
=6
!!linebreak:original
8a/L
8f#/
8e/J
8B/L
8d#/
8f#/J
4a/
8f#/
=7
8g#/L
8b/
8a/J
8g#/L
8f#/
8e/J
8d#/L
8e/
8f#/J
=8
4.e/
8b/L
8g#/
8b/J
4.ee\
==
*-
